X:185 
T:Scully Casey's (*) (hornpipe) 
B:CRE3.212	(gan ainm)
F:file ID: cre.3/185scul_c_H
R:hornpipe
L:1/8
Q:150
M:C
K:D
(3ABc| d2FA DAFA|DAFA d2ef|geag edcd|(3efe (3dcB AGFG|
(3ABA FA DAFA|DAFA d2fa|gfag edcd|1 (3efe dcd2:|2 (3efe dc d3||
|:e|f2df f2d2|(3gab ef gbeg|f2df f2d2|(3cde Ae ceAe|
f2df fadf|gbef gbeg|faa2 bgec|d2dc d3:|

%%%

